svg/u1f6c5.svg

<svg viewBox="0 0 128 128" xmlns="http://www.w3.org/2000/svg">
  <g>
    <path d="M116,4H12c-4.42,0-8,3.58-8,8v104c0,4.42,3.58,8,8,8h104c4.42,0,8-3.58,8-8V12 C124,7.58,120.42,4,116,4z" fill="#194FA5"/>
    <path d="M109.7,4H11.5C7.37,4.03,4.03,7.37,4,11.5v97.9c-0.01,4.14,3.34,7.49,7.48,7.5c0.01,0,0.01,0,0.02,0 h98.1c4.14,0.01,7.49-3.34,7.5-7.48c0-0.01,0-0.01,0-0.02V11.5c0.09-4.05-3.13-7.41-7.18-7.5C109.85,4,109.77,4,109.7,4z" fill="#2262DD"/>
    <path d="M39.7,12.9c0-2.3-1.6-3-10.8-2.7c-7.7,0.3-11.5,1.2-13.8,4c-2.1,2.56-5.24,14.3-2.43,16.49 c0.99,0.77,2.39,0.84,3.59,0.48c3.12-0.93,3.95-4.27,5.88-6.52c2.01-2.35,4.54-4.11,7.22-5.6C31.17,18.04,39.7,15.52,39.7,12.9z" fill="#68ABE6"/>
    <g>
      <path d="M101,38c1.65,0,3,1.35,3,3v60c0,1.65-1.35,3-3,3H21c-1.65,0-3-1.35-3-3V41c0-1.65,1.35-3,3-3H101 M101,33H21c-4.42,0-8,3.58-8,8v60c0,4.42,3.58,8,8,8h80c4.42,0,8-3.58,8-8V41C109,36.58,105.42,33,101,33z" fill="#FAFAFA"/>
      <path d="M76,53h-3v-8c0-2.21-1.79-4-4-4H53c-2.21,0-4,1.79-4,4v8h-3c-0.55,0-1,0.45-1,1v42 c0,0.55,0.45,1,1,1h30c0.55,0,1-0.45,1-1V54C77,53.45,76.55,53,76,53z M54,45h14c0.55,0,1,0.45,1,1v6c0,0.55-0.45,1-1,1H54 c-0.55,0-1-0.45-1-1v-6C53,45.45,53.45,45,54,45z" fill="#FAFAFA"/>
      <path d="M40,53h-7c-4.42,0-8,3.58-8,8v28c0,4.42,3.58,8,8,8h7c0.55,0,1-0.45,1-1V54 C41,53.45,40.55,53,40,53z" fill="#FAFAFA"/>
      <path d="M89,53h-7c-0.55,0-1,0.45-1,1v42c0,0.55,0.45,1,1,1h7c4.42,0,8-3.58,8-8V61 C97,56.58,93.42,53,89,53z" fill="#FAFAFA"/>
      <path d="M79,19H56.74c-0.89-3.45-4.01-6-7.74-6c-4.42,0-8,3.58-8,8s3.58,8,8,8c3.73,0,6.85-2.55,7.74-6H63 v4c0,1.1,0.9,2,2,2s2-0.9,2-2v-4h4v4c0,1.1,0.9,2,2,2s2-0.9,2-2v-4h4c1.1,0,2-0.9,2-2S80.1,19,79,19z M49,25c-2.21,0-4-1.79-4-4 s1.79-4,4-4s4,1.79,4,4S51.21,25,49,25z" fill="#FAFAFA"/>
    </g>
  </g>
</svg>

<svg viewBox="0 0 128 128" xmlns="http://www.w3.org/2000/svg">
  <defs/>
  <path d="M116,4 L12,4 C7.58,4 4,7.58 4,12 L4,116 C4,120.42 7.58,124 12,124 L116,124 C120.42,124 124,120.42 124,116 L124,12 C124,7.58 120.42,4 116,4 Z" fill="#194FA5"/>
  <path d="M109.7,4 L11.5,4 C7.37,4.03 4.03,7.37 4,11.5 L4,109.4 C3.99,113.54 7.34,116.89 11.48,116.9 C11.49,116.9 11.49,116.9 11.5,116.9 L109.6,116.9 C113.74,116.91 117.09,113.56 117.1,109.42 C117.1,109.41 117.1,109.41 117.1,109.4 L117.1,11.5 C117.19,7.45 113.97,4.09 109.92,4 C109.85,4 109.77,4 109.7,4 Z" fill="#2262DD"/>
  <path d="M39.7,12.9 C39.7,10.6 38.1,9.9 28.9,10.2 C21.2,10.5 17.4,11.4 15.1,14.2 C13,16.76 9.86,28.5 12.67,30.69 C13.66,31.46 15.06,31.53 16.26,31.17 C19.38,30.24 20.21,26.9 22.14,24.65 C24.15,22.3 26.68,20.54 29.36,19.05 C31.17,18.04 39.7,15.52 39.7,12.9 Z" fill="#68ABE6"/>
  <path d="M101,38 C102.65,38 104,39.35 104,41 L104,101 C104,102.65 102.65,104 101,104 L21,104 C19.35,104 18,102.65 18,101 L18,41 C18,39.35 19.35,38 21,38 L101,38 M101,33 L21,33 C16.58,33 13,36.58 13,41 L13,101 C13,105.42 16.58,109 21,109 L101,109 C105.42,109 109,105.42 109,101 L109,41 C109,36.58 105.42,33 101,33 Z" fill="#FAFAFA"/>
  <path d="M76,53 L73,53 L73,45 C73,42.79 71.21,41 69,41 L53,41 C50.79,41 49,42.79 49,45 L49,53 L46,53 C45.45,53 45,53.45 45,54 L45,96 C45,96.55 45.45,97 46,97 L76,97 C76.55,97 77,96.55 77,96 L77,54 C77,53.45 76.55,53 76,53 Z M54,45 L68,45 C68.55,45 69,45.45 69,46 L69,52 C69,52.55 68.55,53 68,53 L54,53 C53.45,53 53,52.55 53,52 L53,46 C53,45.45 53.45,45 54,45 Z" fill="#FAFAFA"/>
  <path d="M40,53 L33,53 C28.58,53 25,56.58 25,61 L25,89 C25,93.42 28.58,97 33,97 L40,97 C40.55,97 41,96.55 41,96 L41,54 C41,53.45 40.55,53 40,53 Z" fill="#FAFAFA"/>
  <path d="M89,53 L82,53 C81.45,53 81,53.45 81,54 L81,96 C81,96.55 81.45,97 82,97 L89,97 C93.42,97 97,93.42 97,89 L97,61 C97,56.58 93.42,53 89,53 Z" fill="#FAFAFA"/>
  <path d="M79,19 L56.74,19 C55.85,15.55 52.73,13 49,13 C44.58,13 41,16.58 41,21 C41,25.42 44.58,29 49,29 C52.73,29 55.85,26.45 56.74,23 L63,23 L63,27 C63,28.1 63.9,29 65,29 C66.1,29 67,28.1 67,27 L67,23 L71,23 L71,27 C71,28.1 71.9,29 73,29 C74.1,29 75,28.1 75,27 L75,23 L79,23 C80.1,23 81,22.1 81,21 C81,19.9 80.1,19 79,19 Z M49,25 C46.79,25 45,23.21 45,21 C45,18.79 46.79,17 49,17 C51.21,17 53,18.79 53,21 C53,23.21 51.21,25 49,25 Z" fill="#FAFAFA"/>
</svg>
